X: 16945
T: Hawk That Swoops On High, The
R: waltz
M: 3/4
K: Dmajor
|:A>B d2 d2|g>f e2 e2|f>e d2 d2|e>d B2 A2|
A>B d2 d2|g>f e2 e2|f>e e>d B2|f2 e>d d2:|
|:A>B d2 d2|ed/2e/ f2 A2|A>B d2 d2|ed/2e/ f2 e2|
f>e d2 d2|ed/2e/ f2 A2|A>B d2 Af|e>f d2 d2:|

